X:158
T:Y Pural Fesur
Z:Jack Campin, http://www.campin.me.uk/
F:Jack Campin's Nine-Note Tunebook
% last edit 03-02-2013
S:John Parry
M:3/4
L:1/8
Q:1/4=100
K:GDor
  D2|G2 GA Bc|d3  c  B2|c2  BA GB|A4
|:D2|G2 GA Bc|d2 c2  B2|cB  AG A2|G4:|
  Bc|d2 BA G2|c2 AG ^F2|G>A BA GB|A4
  D2|G2 GA Bc|d2 c2  B2|cB  AG A2|G4|]


% == Northumbrian songs and dance tunes =====================================

